!!!OTL: Surrexit dominus valete
**kern
*staff1
=--
*clefC1
*k[b-]
*met(c)
*M4/4
1g
1g
=-
1a
2g
2g
=-
1f
2r
2f
=-
1g
1b-
=-
1a
1a
=-
!!linebreak:original
1r
1dd
=-
1cc
2b-
2b-
=-
1a
2r
2a
=-
1b-
2a
1g
2f
1g
=-
!!linebreak:original
1r
1f
=-
1f
1g
=-
2a
2a
1f
=-
2r
2b-
1b-
=-
1cc
1b-
=-
1b-
1r
=-
!!linebreak:original
1g
1a
=-
2a
2a
1g
=-
1e
1d
=-
1f
2g
2g
=-
1g
1f
=-
1f
1r
=-
!!linebreak:original
1dd
1dd
=-
1cc
2dd
2dd
=-
1b-
2r
2cc
=-
1cc
1a
=-
1b-
2a
1g
2e
1g
=-
!!pagebreak:original
*M3/1
0f
1f
=-
0g
1g
=-
1a
1a
1a
=-
0f
1f
=-
1dd
1dd
1dd
=-
0a
1a
=-
0f
1f
=-
0f
=-=
*-
!!title: @{OTL}, @{GTL}, ed. @{ENC}
!!!pag:
!!!GTL: Hymnbook C
!!!EFL: 
!!!YEM: Creative Commons CC/BY/NC/SA 4.0
!!!ENC: Marcin Konik
!!!END: 2015-0m-dd
!!!EED: Marcin Konik
!!!EEV: 
!!!ONB: Encoded in vim by Marcin Konik
!!!CharacterEncoding: utf-8
!!!RDF**kern: l=long note in original notation
!!!RDF**kern: i=editorial accidental
!!muse2ps: z14jc180F
!!!COM: Anonim
!!!CDT: [?]
!!!TXO: Polish
!!!ODT: 
!!!GTL: Hymnbook C
!!!ARL: Opactwo św. Wojciecha, Staniątki 
!!!voices:	1
